X: 1788
T: Solsan da Sararsan...
C: Mısırlı Udî İbrahim Efendi
O: Turkey
F: http://compmusic.upf.edu/node/140
N: hicaz--sarki--turkaksagi--solsan_da_sararsan--misirli_udi_ibrahim_efendi
N: makam= hicaz
N: form= sarki
N: usul= turkaksagi = 5/8
M: 5/8
L: 1/16
K: C _7/8B ^f ^c 
Q: 1/4=116
%%MIDI tuningsystem comma53
a2g2 a2g2 f2 | g2 f2g2 f2e2  | edcd efga =ba | \
w:  ARANAĞME  |   |   | 
gf fee6  | 
w:   | 
a2g2 a2g2 f2 | g2 f2g2 f2e2  | edcd efg=f ed | \
w:  ARANAĞME  |   |   | 
cB BAA6  | 
w:   | 
A4 e2d2 c2 | d2 e2e6  | e=fed g4 fe | (3=fed dcd4z2  | 
w:  Sol san   |  da  sa rar  |  san   |  yi *  *  ne  *  gül   | 
d/c/d/e/cB A6 | ag fede fga2  | e2f2 gfa3/2g/ fe | 
w:  pen  |  pen  |  be  de hen  | 
e3=fed cBA2  | A4 e2d2 c2 | d2 e2e6  | e=fed g4 fe | 
w:  sin   SAZ  |  Sol san   |  da  sa rar  |  san   | 
(3=fed dcd4z2  | d/c/d/e/cB A6 | ag fede fga2  | 
w:  yi *  *  ne  *  gül   |  pen  |  pen  | 
e2f2 gfa3/2g/ fe | e4de fga2  | d4 a2g2 (3fef | \
w:  be  de hen  |  sin   SAZ  |  Rab bin   | 
ga gfg3/2f/ e2z2  | 
w:  ba *  na  *  bir   | 
g2fe f2g2 a2 | =fe dcd6  | d4 a4 g=f | ed cBc3/2B/ A2z2  | 
w:  nî  |  me *  ti  *  var  |  sa   |   | 
e2d2 (3g=fe(3dcB BA | A4de fga2  | d4 a2g2 (3fef | 
w:  o  da  sen  |  sin   SAZ  |  Rab bin   | 
ga gfg3/2f/ e2z2  | g2fe f2g2 a2 | =fe dcd6  | \
w:  ba *  na  *  bir   |  nî  |  me *  ti  *  var  | 
d4 a4 g=f | 
w:  sa   | 
ed cBc3/2B/ A2z2  | e2d2 (3g=fe(3dcB BA | \
w:   |  o  da  sen  | 
A4ag f^ef2  | 
w:  sin   SAZ  | 
d3f f6 | g2 a2ag f^ef2  | a2gf g2a2 =b2 | \
w:  Sî *  nem   |  e be dî  |  yen   | 
ag f^ef4z2  | 
w:  o  *  gü *  zel   | 
d/c/d/e/cB A6 | ag fede fga2  | e2f2 gfa3/2g/ fe | 
w:  ten  |  ten  |  le  be zen  | 
e4ag f^ef2  | d3f f6 | g2 a2ag f^ef2  | \
w:  sin   SAZ  |  Sî *  nem   |  e be dî  | 
a2gf g2a2 =b2 | 
w:  yen   | 
ag f^ef4z2  | d/c/d/e/cB A6 | ag fede fga2  | 
w:  o  *  gü *  zel   |  ten  |  ten  | 
e2f2 gfa3/2g/ fe | e4de fga2  | d4 a2g2 (3fef | \
w:  le  be zen  |  sin SAZ  |  Rab bin   | 
ga gfg3/2f/ e2z2  | 
w:  ba *  na  *  bir   | 
g2fe f2g2 a2 | =fe dcd6  | d4 a4 g=f | ed cBc3/2B/ A2z2  | 
w:  nî  |  me *  ti  *  var  |  sa   |   | 
e2d2 (3g=fe(3dcB BA | A4de fga2  | d4 a2g2 (3fef | 
w:  o  da  sen  |  sin   SAZ  |  Rab bin   | 
ga gfg3/2f/ e2z2  | g2fe f2g2 a2 | =fe dcd6  | \
w:  ba *  na  *  bir   |  nî  |  me *  ti  *  var  | 
d4 a4 g=f | 
w:  sa   | 
ed cBc3/2B/ A2z2  | e2d2 (3g=fe(3dcB BA | \
w:   |  o  da  sen  | 
A4|
w:  sin    | 


